X:1
T: Ladies' Fancy
T: 8 x 32J 2C (RSCDS Book 13)
P: Peggie's Wedding
C: Athole
C: arr. T. Traub 12-11-96
R: Jig
M: 6/8
%
K: C
L: 1/8
G |: "C" cdc c2 c|"C"ceg gec|"C"cdc "Am"c2 c|"G"Bcd dBG|"C"cdc c2 c|"C"ceg gec|"F"faf "C"ege|"G"Bcd dBG :|
|: "C"cdc g2 c|"C"e2 c g2 c|"C"cdc g2 c|"G"Bcd dBG|"C"cdc gec |"C/D"edc "C/E"gec|"F"faf "C/E"ege|"G"Bcd dBG :|
